X:1
T:[ID 1-28a]
T:[ID 1-28a]
T:Bezeichnung standardisiert: Menuett Men\"uet
T:Urheber unbekannt Datum in der hier transkribierten schriftlichen Quelle: vermutlich vor 1767
C:Urheber unbekannt
C:Datum in der hier transkribierten schriftlichen Quelle: vermutlich vor 1767
L:1/8
M:3/4
K:D
V:1 treble 
V:1
 d2 d2 d2 | (3def (3efg f2 | d2 d2 d2 | (3def (3efg f2 | fddB B2 | eccA A2 | BdcBA^G | A6 :: %8
 d4"^(=)*" c2 | BAGF G2 | e4 d2 | cBA^G A2 | gecA d2 | gecA d2 | egfedc | d6 :| %16

